content/images/home/tuned_release.svg

<svg width="303" height="96" viewBox="0 0 303 96" fill="none" xmlns="http://www.w3.org/2000/svg">
<g clip-path="url(#clip0_93_29)">
<rect width="303" height="96" rx="8" fill="#DBECDB"/>
<path fill-rule="evenodd" clip-rule="evenodd" d="M171.068 -14.1418L208.341 8.27295C210.455 9.52776 212.209 11.3267 213.43 13.4904C214.65 15.654 215.293 18.1066 215.296 20.6035V61.0859C215.296 63.5886 214.653 66.0475 213.431 68.2169C212.209 70.3863 210.451 72.1904 208.333 73.4488L146.992 109.98L146.976 109.988C144.844 111.252 142.423 111.917 139.958 111.917C137.493 111.917 135.072 111.252 132.94 109.988H132.932L95.6113 87.751C93.5072 86.4952 91.7621 84.6981 90.5502 82.5388C89.3383 80.3795 88.7017 77.9335 88.7041 75.4446V34.7602C88.7041 32.3038 89.3212 29.9282 90.4447 27.8516L90.4764 27.8112L90.5555 27.6576C91.7423 25.5406 93.475 23.7306 95.6192 22.462L157.071 -14.1499C159.19 -15.4136 161.6 -16.0796 164.054 -16.0796C166.508 -16.0796 168.917 -15.4136 171.036 -14.1499L171.052 -14.1418H171.068ZM163.053 -3.68591C163.356 -3.86623 163.7 -3.96124 164.05 -3.96124C164.4 -3.96124 164.744 -3.86623 165.047 -3.68591L197.605 15.8846L141.018 49.4018C140.695 49.5941 140.328 49.6955 139.954 49.6955C139.58 49.6955 139.213 49.5941 138.89 49.4018L106.324 30.106L163.053 -3.68591ZM146.976 59.89L157.776 53.4904V89.5286L145.908 96.5989V60.4637C146.274 60.2885 146.633 60.097 146.984 59.89H146.976ZM169.636 82.4664V46.4686L181.67 39.3418V75.2992L169.636 82.4664ZM193.538 68.2289L202.36 62.9767H202.375C202.696 62.7857 202.962 62.512 203.147 62.183C203.332 61.854 203.428 61.4813 203.428 61.1021V26.4537L193.538 32.3119V68.2289ZM101.593 77.2789L134.032 96.6151V60.4718C133.66 60.2943 133.295 60.1002 132.94 59.89L100.572 40.7154V75.4446C100.572 76.2123 100.968 76.9072 101.593 77.2789Z" fill="white" fill-opacity="0.5"/>
<path fill-rule="evenodd" clip-rule="evenodd" d="M157.274 30.7523L167.584 36.9523C168.169 37.2994 168.654 37.797 168.992 38.3955C169.329 38.9939 169.507 39.6723 169.508 40.363V51.5605C169.508 52.2528 169.33 52.9329 168.992 53.533C168.654 54.1331 168.168 54.6321 167.582 54.9801L150.615 65.0848L150.61 65.087C150.021 65.4365 149.351 65.6206 148.669 65.6206C147.987 65.6206 147.318 65.4365 146.728 65.087H146.726L136.403 58.9362C135.821 58.5888 135.338 58.0917 135.003 57.4945C134.668 56.8972 134.492 56.2206 134.492 55.5322V44.2788C134.492 43.5993 134.663 42.9422 134.974 42.3678L134.982 42.3566L135.004 42.3142C135.333 41.7286 135.812 41.2279 136.405 40.877L153.403 30.7501C153.989 30.4005 154.655 30.2163 155.334 30.2163C156.013 30.2163 156.679 30.4005 157.265 30.7501L157.27 30.7523H157.274ZM155.057 33.6444C155.141 33.5946 155.236 33.5683 155.333 33.5683C155.43 33.5683 155.525 33.5946 155.609 33.6444L164.614 39.0577L148.962 48.3287C148.873 48.3819 148.771 48.4099 148.668 48.4099C148.565 48.4099 148.463 48.3819 148.374 48.3287L139.366 42.9914L155.057 33.6444ZM150.61 51.2297L153.598 49.4596V59.4279L150.315 61.3835V51.3884C150.416 51.34 150.516 51.287 150.613 51.2297H150.61ZM156.878 57.4745V47.5173L160.207 45.546V55.492L156.878 57.4745ZM163.49 53.5363L165.93 52.0835H165.934C166.023 52.0307 166.096 51.955 166.147 51.864C166.199 51.773 166.225 51.6699 166.225 51.565V41.9811L163.49 43.6016V53.5363ZM138.057 56.0396L147.03 61.388V51.3907C146.927 51.3416 146.826 51.2879 146.728 51.2297L137.775 45.926V55.5322C137.775 55.7445 137.884 55.9367 138.057 56.0396Z" fill="#4BA94B"/>
</g>
<defs>
<clipPath id="clip0_93_29">
<rect width="303" height="96" rx="8" fill="white"/>
</clipPath>
</defs>
</svg>

<svg xmlns="http://www.w3.org/2000/svg" width="303" height="96" fill="none" viewBox="0 0 303 96"><g clip-path="url(#a)"><rect width="303" height="96" fill="#DBECDB" rx="8"/><path fill="#fff" fill-opacity=".5" fill-rule="evenodd" d="m171.068-14.142 37.273 22.415a14.138 14.138 0 0 1 5.089 5.217 14.523 14.523 0 0 1 1.866 7.114v40.482c0 2.503-.643 4.962-1.865 7.13a14.163 14.163 0 0 1-5.098 5.233l-61.341 36.531-.016.008a13.755 13.755 0 0 1-7.018 1.929c-2.465 0-4.886-.665-7.018-1.929h-.008l-37.32-22.237a14.097 14.097 0 0 1-5.062-5.212 14.472 14.472 0 0 1-1.846-7.094V34.76c0-2.456.617-4.832 1.74-6.908l.032-.04.08-.154a13.97 13.97 0 0 1 5.063-5.196l61.452-36.612a13.628 13.628 0 0 1 6.983-1.93c2.454 0 4.863.666 6.982 1.93l.016.008h.016Zm-8.015 10.456a1.949 1.949 0 0 1 1.994 0l32.558 19.57-56.587 33.518a2.079 2.079 0 0 1-2.128 0l-32.566-19.296 56.729-33.792ZM146.976 59.89l10.8-6.4v36.04l-11.868 7.07V60.464a14.12 14.12 0 0 0 1.076-.574h-.008Zm22.66 22.576V46.47l12.034-7.127V75.3l-12.034 7.167Zm23.902-14.237 8.822-5.252h.015c.321-.191.587-.465.772-.794.185-.329.281-.702.281-1.08v-34.65l-9.89 5.859v35.917Zm-91.945 9.05 32.439 19.336V60.472a13.854 13.854 0 0 1-1.092-.582l-32.368-19.175v34.73c0 .767.396 1.462 1.021 1.834Z" clip-rule="evenodd"/><path fill="#4BA94B" fill-rule="evenodd" d="m157.274 30.752 10.31 6.2a3.91 3.91 0 0 1 1.408 1.444 4.02 4.02 0 0 1 .516 1.967V51.56a4.02 4.02 0 0 1-.516 1.973c-.338.6-.824 1.1-1.41 1.447l-16.967 10.105-.005.002a3.803 3.803 0 0 1-3.882 0h-.002l-10.323-6.15a3.899 3.899 0 0 1-1.4-1.442 4.013 4.013 0 0 1-.511-1.963V44.28c0-.68.171-1.337.482-1.911l.008-.011.022-.043a3.871 3.871 0 0 1 1.401-1.437l16.998-10.127a3.766 3.766 0 0 1 3.862 0l.005.002h.004Zm-2.217 2.892a.54.54 0 0 1 .552 0l9.005 5.414-15.652 9.27a.574.574 0 0 1-.588 0l-9.008-5.337 15.691-9.347ZM150.61 51.23l2.988-1.77v9.968l-3.283 1.956v-9.996c.101-.048.201-.101.298-.158h-.003Zm6.268 6.245v-9.958l3.329-1.971v9.946l-3.329 1.983Zm6.612-3.939 2.44-1.453h.004a.601.601 0 0 0 .291-.519v-9.583l-2.735 1.62v9.935Zm-25.433 2.504 8.973 5.348v-9.997a3.762 3.762 0 0 1-.302-.161l-8.953-5.304v9.606c0 .213.109.405.282.508Z" clip-rule="evenodd"/></g><defs><clipPath id="a"><rect width="303" height="96" fill="#fff" rx="8"/></clipPath></defs></svg>
